brandFactory_export/3.Masa/Flecha arriba izquierda_3Masa.svg

<?xml version="1.0" encoding="UTF-8"?>
<svg width="24px" height="24px" viewBox="0 0 24 24" version="1.1" xmlns="http://www.w3.org/2000/svg" xmlns:xlink="http://www.w3.org/1999/xlink">
    <title>3.Masa/Flecha arriba izquierda_3Masa</title>
    <g id="Symbols" stroke="none" stroke-width="1" fill="none" fill-rule="evenodd">
        <g id="3.Masa/Flecha-arriba-izquierda_3Masa" fill="#5CB615" fill-rule="nonzero">
            <path d="M22.3260504,14.4571429 L22.3260504,14.4840336 C22.3193277,14.9579832 22.0907563,15.4184874 21.6537815,15.8554622 L15.6235294,21.9092437 L15.6033613,21.9294118 C15.1865546,22.312605 14.7529412,22.4571429 14.3092437,22.3630252 C13.9058824,22.2756303 13.5831933,22 13.3210084,21.7378151 L13.3042017,21.7210084 L7.53277311,15.5865546 L4.43697479,18.6823529 L4.42689076,18.692437 C4.0302521,19.0722689 3.35462185,19.1831933 2.82016807,18.9546218 C2.32268908,18.7428571 2.02689076,18.2756303 2.02689076,17.707563 L2.02689076,3.19663866 C2.00336134,2.8605042 2.11092437,2.55798319 2.33277311,2.33613445 C2.55462185,2.11428571 2.8605042,2.00672269 3.19327731,2.03361345 L17.7680672,2.04033613 C18.2655462,2.02689076 18.7193277,2.31932773 18.9142857,2.77647059 C19.1596639,3.32436975 19.0487395,4.03361345 18.6554622,4.46386555 L18.6386555,4.48403361 L15.7815126,7.33781513 L21.6672269,13.0857143 L21.6739496,13.092437 C22.107563,13.5193277 22.3260504,13.9798319 22.3260504,14.4571429 Z" id="Path"></path>
        </g>
    </g>
</svg>

<svg width="24" height="24" viewBox="0 0 24 24" xmlns="http://www.w3.org/2000/svg"><path d="M22.326 14.457v.027c-.007.474-.235.934-.672 1.371l-6.03 6.054-.02.02c-.417.384-.851.528-1.295.434-.403-.087-.726-.363-.988-.625l-.017-.017-5.771-6.134-3.096 3.095-.01.01c-.397.38-1.072.491-1.607.263-.497-.212-.793-.68-.793-1.247V3.197a1.082 1.082 0 01.306-.86c.222-.223.528-.33.86-.303l14.575.006a1.21 1.21 0 011.146.736c.246.548.135 1.258-.259 1.688l-.016.02-2.857 2.854 5.885 5.748.007.006c.434.427.652.888.652 1.365z" fill="#5CB615" fill-rule="nonzero"/></svg>
